icon-themes/breeze_svg/cmd/lc_overline.svg

<svg viewBox="0 0 24 24" xmlns="http://www.w3.org/2000/svg"><path d="m5 0v1h14v-1zm7 4c-2.77 0-5 2.23-5 5v6c0 2.77 2.23 5 5 5s5-2.23 5-5v-6c0-2.77-2.23-5-5-5zm1 2c1.108 0 2 .892 2 2v8c0 1.108-.892 2-2 2s-2-.892-2-2v-8c0-1.108.892-2 2-2z" fill="#4d4d4d"/></svg>

<svg xmlns="http://www.w3.org/2000/svg" viewBox="0 0 24 24">
 <path 
     style="fill:#4d4d4d" 
     d="M 5 0 L 5 1 L 19 1 L 19 0 L 5 0 z M 12 4 C 9.23 4 7 6.23 7 9 L 7 15 C 7 17.77 9.23 20 12 20 C 14.77 20 17 17.77 17 15 L 17 9 C 17 6.23 14.77 4 12 4 z M 13 6 C 14.108 6 15 6.892 15 8 L 15 16 C 15 17.108 14.108 18 13 18 C 11.892 18 11 17.108 11 16 L 11 8 C 11 6.892 11.892 6 13 6 z "
     />
 </svg>
